src/lib/assets/icons/cybersecurity.svg

<svg width="120" height="120" viewBox="0 0 120 120" fill="none" xmlns="http://www.w3.org/2000/svg">
<path d="M40 65H25C21.0218 65 17.2064 63.4196 14.3934 60.6066C11.5804 57.7936 10 53.9782 10 50V30C10 26.0218 11.5804 22.2064 14.3934 19.3934C17.2064 16.5804 21.0218 15 25 15H65C68.9782 15 72.7936 16.5804 75.6066 19.3934C78.4196 22.2064 80 26.0218 80 30V35C80 36.3261 79.4732 37.5979 78.5355 38.5355C77.5979 39.4732 76.3261 40 75 40C73.6739 40 72.4021 39.4732 71.4645 38.5355C70.5268 37.5979 70 36.3261 70 35V30C70 28.6739 69.4732 27.4021 68.5355 26.4645C67.5979 25.5268 66.3261 25 65 25H25C23.6739 25 22.4021 25.5268 21.4645 26.4645C20.5268 27.4021 20 28.6739 20 30V50C20 51.3261 20.5268 52.5979 21.4645 53.5355C22.4021 54.4732 23.6739 55 25 55H40C41.3261 55 42.5979 55.5268 43.5355 56.4645C44.4732 57.4021 45 58.6739 45 60C45 61.3261 44.4732 62.5979 43.5355 63.5355C42.5979 64.4732 41.3261 65 40 65V65Z" fill="#6DD743"/>
<path d="M35 45C33.6762 44.9815 32.4082 44.4636 31.45 43.55C30.9948 43.0744 30.638 42.5137 30.4 41.9C30.1438 41.2989 30.0079 40.6534 30 40C30.0184 38.6761 30.5363 37.4081 31.45 36.45C31.936 36.0083 32.4941 35.6532 33.1 35.4C34.0106 35.0171 35.0141 34.9125 35.9841 35.0993C36.954 35.2862 37.8469 35.7562 38.55 36.45C39.0186 36.9148 39.3906 37.4678 39.6445 38.0771C39.8983 38.6864 40.029 39.3399 40.029 40C40.029 40.66 39.8983 41.3136 39.6445 41.9228C39.3906 42.5321 39.0186 43.0851 38.55 43.55L37.8 44.15L36.9 44.6L36 45H35Z" fill="#6DD743"/>
<path d="M55 45C53.6761 44.9815 52.4081 44.4636 51.45 43.55L50.85 42.8C50.6607 42.5212 50.5094 42.2186 50.4 41.9C50.221 41.6224 50.0861 41.3188 50 41C49.9777 40.667 49.9777 40.3329 50 40C50.0184 38.6761 50.5363 37.4081 51.45 36.45C51.9255 35.9948 52.4862 35.6379 53.1 35.4C54.0105 35.0171 55.0141 34.9125 55.984 35.0993C56.954 35.2862 57.8468 35.7562 58.55 36.45C59.4636 37.4081 59.9815 38.6761 60 40C60.0222 40.3329 60.0222 40.667 60 41C59.9452 41.3132 59.8441 41.6165 59.7 41.9C59.5905 42.2186 59.4392 42.5212 59.25 42.8L58.65 43.55C57.6667 44.4873 56.3584 45.0071 55 45V45Z" fill="#6DD743"/>
<path d="M45 20C43.6739 20 42.4021 19.4732 41.4645 18.5355C40.5268 17.5979 40 16.3261 40 15V10C40 8.67392 40.5268 7.40215 41.4645 6.46447C42.4021 5.52678 43.6739 5 45 5C46.3261 5 47.5979 5.52678 48.5355 6.46447C49.4732 7.40215 50 8.67392 50 10V15C50 16.3261 49.4732 17.5979 48.5355 18.5355C47.5979 19.4732 46.3261 20 45 20Z" fill="#6DD743"/>
<path d="M30 110C28.6739 110 27.4021 109.473 26.4645 108.536C25.5268 107.598 25 106.326 25 105V90C25 88.6739 25.5268 87.4021 26.4645 86.4645C27.4021 85.5268 28.6739 85 30 85C31.3261 85 32.5979 85.5268 33.5355 86.4645C34.4732 87.4021 35 88.6739 35 90V105C35 106.326 34.4732 107.598 33.5355 108.536C32.5979 109.473 31.3261 110 30 110Z" fill="#6DD743"/>
<path d="M40 95H30C28.6739 95 27.4021 94.4732 26.4645 93.5355C25.5268 92.5979 25 91.3261 25 90V60C25 58.6739 25.5268 57.4021 26.4645 56.4645C27.4021 55.5268 28.6739 55 30 55C31.3261 55 32.5979 55.5268 33.5355 56.4645C34.4732 57.4021 35 58.6739 35 60V85H40C41.3261 85 42.5979 85.5268 43.5355 86.4645C44.4732 87.4021 45 88.6739 45 90C45 91.3261 44.4732 92.5979 43.5355 93.5355C42.5979 94.4732 41.3261 95 40 95V95Z" fill="#6DD743"/>
<path d="M10.0001 85C9.07672 84.9972 8.17219 84.7388 7.38673 84.2534C6.60127 83.768 5.96555 83.0746 5.55005 82.25C4.957 81.0691 4.85549 79.7015 5.26773 78.4461C5.67997 77.1906 6.57243 76.1494 7.75005 75.55L27.7501 65.55C28.9155 65.0647 30.2214 65.0382 31.4056 65.4759C32.5898 65.9136 33.5646 66.783 34.1342 67.9097C34.7039 69.0363 34.8263 70.3368 34.4768 71.5499C34.1273 72.7631 33.3318 73.7991 32.2501 74.45L12.2501 84.45C11.5585 84.8202 10.7844 85.0094 10.0001 85V85Z" fill="#6DD743"/>
<path d="M80 115C79.1242 115.006 78.2621 114.782 77.5 114.35L52.5 100C51.737 99.5595 51.1039 98.9252 50.6649 98.1613C50.2259 97.3974 49.9965 96.5311 50 95.65V66.7C49.9965 65.819 50.2259 64.9526 50.6649 64.1888C51.1039 63.4249 51.737 62.7905 52.5 62.35L77.5 47.95C78.2601 47.5112 79.1224 47.2802 80 47.2802C80.8777 47.2802 81.7399 47.5112 82.5 47.95L107.5 62.35C108.263 62.7905 108.896 63.4249 109.335 64.1888C109.774 64.9526 110.004 65.819 110 66.7V95.55C110.004 96.4311 109.774 97.2974 109.335 98.0613C108.896 98.8252 108.263 99.4595 107.5 99.9L82.5 114.35C81.738 114.782 80.8759 115.006 80 115ZM60 92.7L80 104.25L100 92.7V69.6L80 58.05L60 69.6V92.7Z" fill="#6DD743"/>
<path d="M80 73.65C78.5166 73.65 77.0666 74.0899 75.8332 74.914C74.5999 75.7381 73.6386 76.9095 73.0709 78.2799C72.5032 79.6503 72.3547 81.1584 72.6441 82.6132C72.9335 84.0681 73.6478 85.4044 74.6967 86.4533C75.7456 87.5022 77.082 88.2165 78.5368 88.5059C79.9917 88.7953 81.4997 88.6468 82.8701 88.0791C84.2406 87.5115 85.4119 86.5502 86.236 85.3168C87.0601 84.0834 87.5 82.6334 87.5 81.15C87.5 79.1609 86.7098 77.2533 85.3033 75.8467C83.8968 74.4402 81.9891 73.65 80 73.65Z" fill="#6DD743"/>
</svg>

<svg xmlns="http://www.w3.org/2000/svg" width="120" height="120" viewBox="0 0 120 120">
  <path
    fill="#6dd743"
    d="M40 65H25a15 15 0 0 1-15-15V30a15 15 0 0 1 15-15h40a15 15 0 0 1 15 15v5a5 5 0 1 1-10 0v-5a5 5 0 0 0-5-5H25a5 5 0 0 0-5 5v20a5 5 0 0 0 5 5h15a5 5 0 1 1 0 10Z"
  />
  <path
    fill="#6dd743"
    d="M35 45a5.25 5.25 0 0 1-3.55-1.45 5.002 5.002 0 0 1-1.05-1.65A5 5 0 0 1 30 40a5.25 5.25 0 0 1 1.45-3.55 5.75 5.75 0 0 1 1.65-1.05 5 5 0 0 1 5.45 1.05 5.001 5.001 0 0 1 0 7.1l-.75.6-.9.45-.9.4h-1zm20 0a5.25 5.25 0 0 1-3.55-1.45l-.6-.75a3.798 3.798 0 0 1-.45-.9 3.2 3.2 0 0 1-.4-.9 7.482 7.482 0 0 1 0-1 5.25 5.25 0 0 1 1.45-3.55 4.998 4.998 0 0 1 1.65-1.05 5 5 0 0 1 5.45 1.05A5.25 5.25 0 0 1 60 40c.022.333.022.667 0 1a3.205 3.205 0 0 1-.3.9 3.79 3.79 0 0 1-.45.9l-.6.75A5.25 5.25 0 0 1 55 45zM45 20a5 5 0 0 1-5-5v-5a5 5 0 0 1 10 0v5a5 5 0 0 1-5 5zm-15 90a5.002 5.002 0 0 1-5-5V90a5 5 0 1 1 10 0v15a5.002 5.002 0 0 1-5 5z"
  />
  <path fill="#6dd743" d="M40 95H30a5 5 0 0 1-5-5V60a5 5 0 1 1 10 0v25h5a5 5 0 1 1 0 10Z" />
  <path
    fill="#6dd743"
    d="M10 85a5 5 0 0 1-2.25-9.45l20-10a5 5 0 0 1 4.5 8.9l-20 10A4.65 4.65 0 0 1 10 85zm70 30a5 5 0 0 1-2.5-.65L52.5 100a5 5 0 0 1-2.5-4.35V66.7a5 5 0 0 1 2.5-4.35l25-14.4a5 5 0 0 1 5 0l25 14.4a5 5 0 0 1 2.5 4.35v28.85a4.995 4.995 0 0 1-2.5 4.35l-25 14.45a5 5 0 0 1-2.5.65zM60 92.7l20 11.55 20-11.55V69.6L80 58.05 60 69.6v23.1zm20-19.05a7.5 7.5 0 1 0 0 15 7.5 7.5 0 0 0 0-15z"
  />
</svg>
